assets/icons/no-package/deb.svg

<?xml version="1.0" encoding="UTF-8" standalone="no"?>
<svg
   viewBox="0 0 24 24"
   height="24"
   id="svg7384"
   version="1.1"
   width="24"
   sodipodi:docname="deb.svg"
   inkscape:version="1.2 (1:1.2.1+202207142221+cd75a1ee6d)"
   xmlns:inkscape="http://www.inkscape.org/namespaces/inkscape"
   xmlns:sodipodi="http://sodipodi.sourceforge.net/DTD/sodipodi-0.dtd"
   xmlns="http://www.w3.org/2000/svg"
   xmlns:svg="http://www.w3.org/2000/svg"
   xmlns:rdf="http://www.w3.org/1999/02/22-rdf-syntax-ns#"
   xmlns:cc="http://creativecommons.org/ns#"
   xmlns:dc="http://purl.org/dc/elements/1.1/">
  <sodipodi:namedview
     id="namedview25"
     pagecolor="#ffffff"
     bordercolor="#666666"
     borderopacity="1.0"
     inkscape:pageshadow="2"
     inkscape:pageopacity="0.0"
     inkscape:pagecheckerboard="0"
     showgrid="false"
     inkscape:zoom="32"
     inkscape:cx="9.65625"
     inkscape:cy="11.578125"
     inkscape:window-width="1920"
     inkscape:window-height="1016"
     inkscape:window-x="0"
     inkscape:window-y="0"
     inkscape:window-maximized="1"
     inkscape:current-layer="svg7384"
     inkscape:snap-page="true"
     inkscape:showpageshadow="2"
     inkscape:deskcolor="#d1d1d1">
    <inkscape:grid
       type="xygrid"
       id="grid829" />
    <inkscape:grid
       type="xygrid"
       id="grid831"
       dotted="true"
       spacingx="0.5"
       spacingy="0.5"
       empspacing="10" />
  </sodipodi:namedview>
  <metadata
     id="metadata20854">
    <rdf:RDF>
      <cc:Work
         rdf:about="">
        <dc:format>image/svg+xml</dc:format>
        <dc:type
           rdf:resource="http://purl.org/dc/dcmitype/StillImage" />
      </cc:Work>
    </rdf:RDF>
  </metadata>
  <defs
     id="defs7386">
    <linearGradient
       id="linearGradient5606"
       inkscape:swatch="solid">
      <stop
         id="stop5608"
         offset="0"
         style="stop-color:#000000;stop-opacity:1;" />
    </linearGradient>
    <linearGradient
       id="linearGradient4526"
       inkscape:swatch="solid">
      <stop
         id="stop4528"
         offset="0"
         style="stop-color:#ffffff;stop-opacity:1;" />
    </linearGradient>
    <linearGradient
       id="linearGradient3600-4"
       inkscape:swatch="gradient">
      <stop
         id="stop3602-7"
         offset="0"
         style="stop-color:#f4f4f4;stop-opacity:1" />
      <stop
         id="stop3604-6"
         offset="1"
         style="stop-color:#dbdbdb;stop-opacity:1" />
    </linearGradient>
  </defs>
  <path
     id="path866"
     style="color:#000000;fill:#808080;fill-opacity:1"
     d="M 3.3632812 2.65625 L 2.6367188 3.34375 L 4.0429688 4.8339844 C 4.0141396 5.0389332 4 5.2583865 4 5.5 L 4 18.5 C 4 19.041663 4.0635993 19.483918 4.2304688 19.859375 C 4.3973379 20.234832 4.6879024 20.527544 5.0273438 20.697266 C 5.7062264 21.036705 6.500004 21 7.5 21 L 15.5 21 C 16.499996 21 17.293774 21.036707 17.972656 20.697266 C 18.198692 20.584247 18.401904 20.415287 18.5625 20.205078 L 19.636719 21.34375 L 20.363281 20.65625 L 18.957031 19.167969 L 18.957031 19.166016 L 18 18.154297 L 13.583984 13.478516 L 13.269531 13.146484 L 10.773438 10.503906 L 10.773438 10.501953 L 10.576172 10.292969 L 8.7578125 8.3691406 L 8.078125 7.6484375 L 5.1464844 4.5429688 L 4.4414062 3.796875 L 3.3632812 2.65625 z M 6.7871094 3 C 6.2102786 3.0047633 5.7086526 3.0383212 5.2578125 3.2050781 L 6.0625 4.0566406 C 6.428875 4.0134723 6.9116085 4 7.5 4 L 15.5 4 C 16.499996 4 17.20623 4.0367086 17.527344 4.1972656 C 17.687901 4.2775443 17.772339 4.3598332 17.855469 4.546875 C 17.938599 4.7339168 18 5.0416686 18 5.5 L 18 16.697266 L 19 17.755859 L 19 5.5 C 19 4.9583354 18.9364 4.5160808 18.769531 4.140625 C 18.602661 3.7651692 18.312099 3.472455 17.972656 3.3027344 C 17.293774 2.9632929 16.499996 3 15.5 3 L 7.5 3 C 7.2500009 3 7.0127571 2.99814 6.7871094 3 z M 12.185547 5.8300781 C 12.0041 5.8449815 11.822778 5.8522818 11.644531 5.875 L 11.726562 5.8867188 C 11.856638 5.8391493 12.043987 5.8582281 12.185547 5.8300781 z M 5 5.8457031 L 7.5625 8.5585938 C 7.5522181 8.5824657 7.5419052 8.6074576 7.53125 8.6308594 C 7.416375 8.8267756 7.3461959 8.7871225 7.328125 8.7714844 C 7.0267153 9.3825543 6.8772602 9.8970522 6.7480469 10.318359 C 6.8401336 10.45609 6.7504226 11.147721 6.7851562 11.701172 C 6.6339857 14.435017 8.7042941 17.088504 10.966797 17.701172 C 11.298415 17.820006 11.789541 17.816415 12.208984 17.828125 C 11.714221 17.686536 11.652176 17.752055 11.169922 17.583984 C 10.822202 17.420041 10.744498 17.233379 10.498047 17.019531 L 10.595703 17.191406 C 10.11265 17.020407 10.314973 16.979892 9.921875 16.855469 L 10.027344 16.720703 C 9.8707161 16.708723 9.6115443 16.456266 9.5410156 16.316406 L 9.3691406 16.324219 C 9.1634102 16.070582 9.0543825 15.886127 9.0625 15.744141 L 9.0078125 15.84375 C 8.9451348 15.736094 8.2490142 14.891209 8.609375 15.087891 C 8.5424393 15.026941 8.4538996 14.988029 8.3574219 14.8125 L 8.4316406 14.728516 C 8.2585131 14.505353 8.1118687 14.220281 8.1230469 14.125 C 8.2155326 14.249823 8.2801414 14.273498 8.34375 14.294922 C 7.9058077 13.208517 7.8803122 14.233584 7.5488281 13.1875 L 7.6191406 13.183594 C 7.5655119 13.102284 7.5333493 13.014098 7.4902344 12.927734 L 7.5195312 12.623047 C 7.2044153 12.258959 7.4328719 11.073887 7.4785156 10.423828 C 7.5097876 10.159545 7.7399605 9.8769489 7.9160156 9.4355469 L 7.8105469 9.4179688 C 7.8565373 9.3377987 7.948754 9.2155231 8.0566406 9.0839844 L 10.353516 11.515625 C 10.438864 12.305744 10.895084 12.760879 11.566406 13.275391 C 11.634007 13.321036 11.643795 13.347507 11.638672 13.371094 C 11.847551 13.449081 12.05768 13.504453 12.267578 13.541016 L 12.486328 13.773438 C 12.31648 13.752855 12.144906 13.720242 11.982422 13.660156 C 11.819407 13.576456 11.59915 13.403431 11.638672 13.371094 C 11.633549 13.394681 11.613997 13.414487 11.623047 13.449219 C 11.33694 13.315347 11.074953 13.114834 10.859375 12.867188 C 10.973818 13.034457 11.096308 13.196468 11.255859 13.324219 C 10.985857 13.233059 10.626479 12.669372 10.521484 12.646484 C 10.884207 13.295959 11.82678 13.818952 12.578125 13.871094 L 17.853516 19.457031 C 17.771014 19.640976 17.686639 19.723087 17.527344 19.802734 C 17.20623 19.963291 16.499996 20 15.5 20 L 7.5 20 C 6.500004 20 5.7937699 19.96329 5.4726562 19.802734 C 5.3120997 19.722454 5.2276614 19.640167 5.1445312 19.453125 C 5.0614015 19.266083 5 18.958333 5 18.5 L 5 5.8457031 z M 11.386719 5.9121094 C 11.08451 5.9304734 10.665442 6.0887648 10.794922 5.9453125 C 10.301886 6.1654148 9.4269844 6.474716 8.9355469 6.9355469 L 8.9199219 6.8320312 C 8.8893847 6.8686867 8.8478358 6.9116768 8.8007812 6.9570312 L 9.5664062 7.765625 C 9.8759423 7.523348 10.026576 7.6023323 10.291016 7.5292969 C 10.637402 7.3236995 9.9920392 7.6099273 10.15625 7.4511719 C 10.755476 7.2982712 10.581746 7.1029719 11.363281 7.0253906 C 11.445781 7.0722326 11.172182 7.0993424 11.103516 7.1601562 C 11.602537 6.9158349 12.682673 6.9708898 13.384766 7.2949219 C 14.198772 7.6756428 15.114195 8.801048 15.150391 9.859375 L 15.191406 9.8691406 C 15.170646 10.289918 15.255272 10.777753 15.107422 11.224609 L 15.207031 11.011719 C 15.219011 11.33322 15.113254 11.489365 15.017578 11.765625 L 14.845703 11.851562 C 14.705045 12.124894 14.860496 12.024878 14.759766 12.242188 C 14.625355 12.361544 14.411004 12.555787 14.228516 12.703125 L 14.513672 13.005859 C 14.537144 12.988086 14.560748 12.97175 14.583984 12.953125 C 14.807813 12.778799 15.052385 12.482509 15.123047 12.478516 C 15.016722 12.638467 15.140304 12.556079 15.058594 12.697266 C 15.281092 12.337836 14.961838 12.550442 15.289062 12.076172 L 15.410156 12.242188 C 15.364906 11.943572 15.780598 11.581253 15.738281 11.109375 C 15.833691 10.965124 15.845267 11.265775 15.744141 11.597656 C 15.88453 11.229446 15.780476 11.169173 15.816406 10.865234 C 15.855126 10.967434 15.907375 11.077625 15.933594 11.185547 C 15.842044 10.829577 16.026222 10.585835 16.072266 10.378906 C 16.026756 10.358946 15.932246 10.535479 15.910156 10.115234 C 15.913456 9.9326599 15.960286 10.019588 15.978516 9.9746094 C 15.942856 9.9539834 15.848104 9.8133294 15.791016 9.5449219 C 15.832136 9.4817119 15.902561 9.7095679 15.958984 9.71875 C 15.922654 9.5054344 15.860083 9.3415468 15.857422 9.1777344 C 15.692411 8.833076 15.799618 9.2252697 15.666016 9.03125 C 15.49036 8.4837888 15.810207 8.9028765 15.832031 8.6542969 C 16.097911 9.0395423 16.250451 9.6373836 16.320312 9.8847656 C 16.267086 9.5830898 16.181166 9.290592 16.076172 9.0078125 C 16.157212 9.0420125 15.946101 8.388715 16.181641 8.8222656 C 15.930266 7.8980757 15.105504 7.0339795 14.347656 6.6289062 C 14.440146 6.7136743 14.55741 6.8191703 14.515625 6.8359375 C 14.138496 6.6117099 14.204419 6.5947478 14.150391 6.5 C 13.843658 6.3750447 13.824031 6.5099808 13.621094 6.5 C 13.042226 6.1928682 12.931126 6.2253601 12.398438 6.0332031 L 12.421875 6.1464844 C 12.038491 6.0187345 11.9748 6.19439 11.560547 6.1464844 C 11.535397 6.1269224 11.694074 6.0754036 11.824219 6.0566406 C 11.453478 6.1056116 11.470179 5.9836828 11.107422 6.0703125 C 11.196712 6.0076358 11.291439 5.9653383 11.386719 5.9121094 z M 11.824219 6.0566406 L 11.892578 6.0507812 L 11.898438 6.0410156 L 11.824219 6.0566406 z M 11.898438 6.0410156 C 12.015006 6.0153329 12.042006 5.9925349 11.6875 5.9824219 C 11.793692 6.0013179 11.916134 6.0155989 11.898438 6.0410156 z M 7.0058594 8.3964844 C 7.0057765 8.4017632 7.0071394 8.4062018 7.0078125 8.4101562 C 7.0074605 8.4057639 7.0063438 8.4009631 7.0058594 8.3964844 z M 7.0078125 8.4160156 C 7.019269 8.5840138 6.9370308 8.6880083 6.9335938 8.6992188 C 6.9413298 8.6949722 6.9761289 8.6646028 7.0605469 8.6054688 C 7.1965303 8.2993183 7.0278807 8.4890392 7.0078125 8.4160156 z M 12.162109 9.1347656 C 11.79948 9.1406706 11.452095 9.2868011 11.195312 9.4921875 L 11.392578 9.7011719 C 11.475483 9.6424421 11.561919 9.5893541 11.65625 9.546875 C 12.303381 9.226702 13.062164 9.3567092 13.525391 9.7890625 C 13.270955 9.4555822 12.762402 9.1020299 12.162109 9.1347656 z M 6.7851562 9.3066406 C 6.6130933 9.5267429 6.705598 9.5749025 6.6875 9.7246094 C 6.7499107 9.533384 6.7613356 9.4174902 6.7851562 9.3066406 z M 13.871094 10.636719 C 13.846493 10.637351 13.814733 10.699378 13.798828 10.767578 C 13.835828 10.787008 13.866544 11.021204 13.902344 10.876953 C 13.914454 10.697903 13.895695 10.636087 13.871094 10.636719 z M 16.046875 11.240234 L 16.017578 11.314453 C 15.964088 11.694776 15.847175 12.070871 15.669922 12.419922 C 15.865806 12.051708 15.993247 11.648369 16.046875 11.240234 z M 13.736328 11.408203 C 13.705224 11.525986 13.639927 11.630258 13.578125 11.740234 C 13.206452 11.974309 13.543261 11.600973 13.578125 11.458984 C 13.17864 11.9624 13.522453 11.761686 13.507812 11.902344 C 13.619219 11.749018 13.70131 11.580863 13.736328 11.408203 z M 10.960938 12.158203 L 11.693359 12.933594 C 11.395449 12.743071 11.136778 12.477893 10.960938 12.158203 z M 10.423828 12.167969 C 10.467748 12.32912 10.557188 12.468317 10.640625 12.609375 L 10.580078 12.427734 C 10.510878 12.351084 10.469872 12.259523 10.423828 12.167969 z M 10.269531 12.441406 L 10.242188 12.580078 C 10.372995 12.75773 10.475837 12.949495 10.642578 13.087891 C 10.522546 12.853816 10.433744 12.758386 10.269531 12.441406 z " />
</svg>

<svg height="24" width="24" xmlns="http://www.w3.org/2000/svg"><path style="color:#000;fill:gray;fill-opacity:1" d="m3.363 2.656-.726.688 1.406 1.49A4.768 4.768 0 0 0 4 5.5v13c0 .542.064.984.23 1.36.167.375.458.668.797.837.68.34 1.473.303 2.473.303h8c1 0 1.794.037 2.473-.303a1.71 1.71 0 0 0 .59-.492l1.074 1.139.726-.688-1.406-1.488v-.002L18 18.154l-4.416-4.675-.314-.333-2.497-2.642v-.002l-.197-.209-1.818-1.924-.68-.72-2.932-3.106-.705-.746-1.078-1.14zM6.787 3c-.577.005-1.078.038-1.53.205l.806.852C6.428 4.013 6.912 4 7.5 4h8c1 0 1.706.037 2.027.197.16.08.245.163.328.35.084.187.145.495.145.953v11.197l1 1.059V5.5c0-.542-.064-.984-.23-1.36a1.72 1.72 0 0 0-.797-.837C17.293 2.963 16.5 3 15.5 3h-8c-.25 0-.487-.002-.713 0zm5.399 2.83c-.182.015-.363.022-.541.045l.082.012c.13-.048.317-.029.459-.057zM5 5.846l2.563 2.713-.032.072c-.115.196-.185.156-.203.14-.301.612-.45 1.126-.58 1.547.092.138.002.83.037 1.383-.151 2.734 1.92 5.388 4.182 6 .331.119.823.115 1.242.127-.495-.141-.557-.076-1.04-.244-.347-.164-.425-.35-.671-.564l.098.171c-.483-.17-.281-.211-.674-.336l.105-.134c-.156-.012-.415-.265-.486-.405l-.172.008c-.206-.253-.315-.438-.306-.58l-.055.1c-.063-.108-.759-.953-.399-.756-.067-.061-.155-.1-.252-.275l.075-.084c-.173-.224-.32-.509-.309-.604.093.125.157.148.22.17-.437-1.086-.463-.061-.794-1.107l.07-.004c-.053-.082-.086-.17-.129-.256l.03-.305c-.316-.364-.087-1.55-.041-2.2.03-.263.261-.546.437-.987l-.105-.018c.046-.08.138-.202.246-.334l2.297 2.432c.085.79.541 1.245 1.212 1.76.068.045.078.072.073.095.209.078.419.133.629.17l.218.232a2.222 2.222 0 0 1-.504-.113c-.163-.084-.383-.257-.343-.289-.005.024-.025.043-.016.078a2.331 2.331 0 0 1-.764-.582c.115.167.237.33.397.457-.27-.09-.63-.655-.735-.678.363.65 1.306 1.173 2.057 1.225l5.276 5.586a.614.614 0 0 1-.327.346c-.32.16-1.027.197-2.027.197h-8c-1 0-1.706-.037-2.027-.197a.615.615 0 0 1-.328-.35C5.06 19.266 5 18.958 5 18.5V5.846zm6.387.066c-.302.018-.722.177-.592.033-.493.22-1.368.53-1.86.99l-.015-.103a1.66 1.66 0 0 1-.12.125l.766.809c.31-.243.46-.164.725-.237.346-.205-.299.08-.135-.078.6-.153.426-.348 1.207-.426.083.047-.19.074-.26.135.5-.244 1.58-.19 2.282.135.814.38 1.73 1.506 1.765 2.564l.041.01c-.02.42.064.909-.084 1.356l.1-.213c.012.321-.094.477-.19.754l-.171.086c-.141.273.014.173-.086.39-.135.12-.349.314-.531.461l.285.303c.023-.018.047-.034.07-.053.224-.174.468-.47.539-.474-.106.16.017.077-.064.218.222-.36-.097-.147.23-.62l.121.165c-.045-.298.37-.66.328-1.133.096-.144.107.157.006.489.14-.369.036-.429.072-.733.04.102.091.213.118.32-.092-.355.092-.6.138-.806-.045-.02-.14.156-.162-.264.003-.182.05-.095.069-.14-.036-.021-.13-.162-.188-.43.041-.063.112.165.168.174-.036-.214-.099-.377-.102-.541-.165-.345-.057.047-.191-.147-.176-.547.144-.128.166-.377.266.386.418.983.488 1.23a5.038 5.038 0 0 0-.244-.876c.081.034-.13-.62.106-.186-.252-.924-1.076-1.788-1.834-2.193.092.085.21.19.168.207-.378-.224-.312-.241-.366-.336-.306-.125-.326.01-.529 0-.579-.307-.69-.275-1.223-.467l.024.113c-.384-.127-.447.048-.861 0-.026-.02.133-.07.263-.09-.37.05-.354-.072-.717.014.09-.062.184-.105.28-.158zm.437.145.069-.006.005-.01-.074.016zm.074-.016c.117-.026.144-.048-.21-.059.106.02.228.034.21.059zM7.006 8.396l.002.014-.002-.014zm.002.02c.011.168-.071.272-.074.283.007-.004.042-.034.127-.094.136-.306-.033-.116-.053-.189zm5.154.719c-.363.006-.71.152-.967.357l.198.21c.082-.06.169-.113.263-.155.647-.32 1.406-.19 1.87.242-.255-.333-.764-.687-1.364-.654zm-5.377.172c-.172.22-.08.268-.098.418.063-.192.074-.308.098-.418zm7.086 1.33c-.025 0-.056.062-.072.13.037.02.068.254.103.11.012-.18-.006-.24-.03-.24zm2.176.603-.03.074c-.053.38-.17.757-.347 1.106a3.49 3.49 0 0 0 .377-1.18zm-2.31.168c-.032.118-.097.222-.159.332-.372.234-.035-.139 0-.281-.4.503-.056.303-.07.443a1.29 1.29 0 0 0 .228-.494zm-2.776.75.732.776a2.17 2.17 0 0 1-.732-.776zm-.537.01c.044.161.133.3.217.441l-.06-.181c-.07-.077-.111-.168-.157-.26zm-.154.273-.028.14c.131.177.234.368.4.507-.12-.234-.208-.33-.372-.647z"/></svg>
